imgs/pix.svg

<svg width="46" height="45" viewBox="0 0 46 45" fill="none" xmlns="http://www.w3.org/2000/svg">
<path d="M35.7287 35.1721L27.9391 42.9628C25.2227 45.6791 20.7772 45.6791 18.0611 42.9628L10.2708 35.1721H11.7516C12.7968 35.1721 13.8485 34.7916 14.587 34.0381C14.5884 34.0408 21.4884 27.1185 22.1958 26.4119C22.4192 26.1889 22.7102 26.077 22.9997 26.077C23.2912 26.077 23.5835 26.1889 23.8074 26.409C24.4494 27.0517 31.4102 34.0509 31.4229 34.0382C32.1611 34.7916 33.2141 35.1722 34.2585 35.1722H35.7287V35.1721ZM10.2708 9.8281L18.0612 2.03721C20.7773 -0.67907 25.2228 -0.67907 27.9392 2.03721L35.7288 9.8281H34.2585C33.2141 9.8281 32.1611 10.207 31.4229 10.9606C31.4104 10.9479 24.4495 17.9483 23.8074 18.5897C23.5835 18.8112 23.2912 18.9218 22.9997 18.9218C22.7102 18.9218 22.4192 18.8112 22.1958 18.5869C21.4884 17.8816 14.5884 10.9592 14.587 10.9606C13.8483 10.207 12.7968 9.8281 11.7516 9.8281H10.2708ZM2.53724 17.5608L7.88023 12.2178H11.7516C11.9972 12.2178 12.2285 12.2589 12.427 12.3356C12.6017 12.4037 12.757 12.5016 12.8792 12.6264C12.8792 12.6464 19.7733 19.546 20.5055 20.2784C21.1888 20.9624 22.0942 21.303 22.9997 21.303C23.9029 21.303 24.8056 20.9625 25.491 20.2784C28.0397 17.7296 30.5985 15.191 33.1316 12.6264C33.2537 12.5016 33.4068 12.4037 33.5829 12.3356C33.7816 12.2589 34.0128 12.2178 34.2584 12.2178H38.1212L43.4628 17.5608C46.1791 20.2769 46.1791 24.7216 43.4628 27.4379L38.1212 32.7809H34.2584C34.0128 32.7809 33.7816 32.7411 33.5829 32.6646C33.4067 32.5963 33.2537 32.4985 33.1316 32.3736C30.5984 29.8094 28.0397 27.2705 25.491 24.7217C24.8056 24.0378 23.9029 23.6958 22.9997 23.6958C22.0942 23.6958 21.1888 24.0363 20.5055 24.7217C19.7733 25.4542 12.8792 32.3524 12.8792 32.3736C12.757 32.4986 12.6017 32.5964 12.427 32.6646C12.2285 32.7413 11.9972 32.7809 11.7516 32.7809H7.88023L2.53724 27.4379C-0.179081 24.7216 -0.179081 20.2769 2.53724 17.5608Z" fill="#3A3A48"/>
</svg>

<?xml version="1.0" encoding="utf-8"?>
<!-- Generator: Adobe Illustrator 16.0.0, SVG Export Plug-In . SVG Version: 6.00 Build 0)  -->
<!DOCTYPE svg PUBLIC "-//W3C//DTD SVG 1.1//EN" "http://www.w3.org/Graphics/SVG/1.1/DTD/svg11.dtd">
<svg version="1.1" id="Layer_1" xmlns="http://www.w3.org/2000/svg" xmlns:xlink="http://www.w3.org/1999/xlink" x="0px" y="0px"
	 width="45px" height="45px" viewBox="0.5 0 45 45" enable-background="new 0.5 0 45 45" xml:space="preserve">
<path fill="#3A3A48" d="M35.729,35.172l-7.789,7.791c-2.717,2.717-7.162,2.717-9.879,0l-7.79-7.791h1.48
	c1.046,0,2.098-0.381,2.836-1.134c0.001,0.003,6.901-6.919,7.608-7.626c0.224-0.223,0.515-0.335,0.804-0.335
	c0.292,0,0.585,0.112,0.809,0.332c0.642,0.643,7.603,7.642,7.615,7.629c0.738,0.753,1.791,1.134,2.835,1.134H35.729L35.729,35.172z
	 M10.271,9.828l7.79-7.791c2.717-2.717,7.162-2.717,9.879,0l7.789,7.791h-1.471c-1.044,0-2.097,0.379-2.835,1.132
	c-0.013-0.013-6.974,6.988-7.615,7.63c-0.224,0.221-0.517,0.332-0.809,0.332c-0.289,0-0.58-0.111-0.804-0.335
	c-0.707-0.705-7.607-7.628-7.608-7.627c-0.739-0.753-1.79-1.132-2.836-1.132H10.271z M2.537,17.561l5.343-5.343h3.871
	c0.246,0,0.478,0.041,0.676,0.117c0.175,0.068,0.33,0.166,0.452,0.291c0,0.021,6.895,6.92,7.626,7.652
	c0.684,0.684,1.589,1.024,2.494,1.024c0.903,0,1.807-0.341,2.492-1.024c2.548-2.549,5.107-5.088,7.641-7.652
	c0.122-0.125,0.274-0.223,0.451-0.291c0.198-0.076,0.43-0.117,0.675-0.117h3.863l5.342,5.343c2.717,2.716,2.717,7.161,0,9.877
	l-5.342,5.344h-3.863c-0.245,0-0.477-0.04-0.675-0.117c-0.177-0.068-0.329-0.166-0.451-0.291c-2.533-2.563-5.093-5.103-7.641-7.651
	c-0.686-0.685-1.589-1.026-2.492-1.026c-0.905,0-1.811,0.341-2.494,1.026c-0.731,0.732-7.626,7.631-7.626,7.651
	c-0.122,0.125-0.277,0.223-0.452,0.291c-0.198,0.077-0.43,0.117-0.676,0.117H7.88l-5.343-5.344
	C-0.18,24.722-0.18,20.276,2.537,17.561z"/>
</svg>
